X:156
T:Lamp of Our Feet
%%stretchlast false
M:3/4
L:1/4
K:G clef=C1
"^I"[G,B,DB] [G,B,DB] "^I¹"[B,,G,DB] | "^ii¹"[C,CEA]2 "^I¹"[B,,G,DB] | "^ii"[A,,A,Cc] [A,,A,Ec] "^V"[D,A,DF] | "^I"[G,B,DG]3 | "^v7²"[A,CD] "^I"[G,B,D] "^V¹"[F,A,D] | "^I"[G,DB]2 "^II7²"[E,G,^CA] | "^V"[D,F,DA]3 | "^ii"[A,,E,Ec] "^viiø7¹"[A,,F,Ec] "^♯i°7"[A,,^G,DB] | [A,,A,CA]2 "^V/V"[A,,A,^CG] | "^V"[D,A,DF]2 "^♯iv°7"[D,G,^CE] | "^V"[D,F,D]2 "^V7³"[C,F,D] | "^I¹"[B,,G,D] "^IV"[C,G,DE] "^IV¹"[E,G,CG] | "^I²"[D,G,B,B]2 "^V7"[D,F,CA] | "^I"[G,,G,B,G]3 |]
